static/logos/overflow-glyph-color.svg

<svg width="50" height="44" viewBox="0 0 50 44" fill="none" xmlns="http://www.w3.org/2000/svg">
<g clip-path="url(#clip0_1_1749)">
<path fill-rule="evenodd" clip-rule="evenodd" d="M49.2201 18.9418C49.2163 18.7777 49.0839 18.6476 48.9193 18.6476H43.3334C43.3334 28.9305 34.9991 37.2634 24.7176 37.2634C14.432 37.2634 6.09706 28.9305 6.09706 18.6476H0.50698C0.34237 18.6476 0.209849 18.7777 0.205593 18.9405L0.203125 18.9503C0.203125 18.9539 0.205593 18.9563 0.205593 18.9611C0.373862 32.3323 11.3041 43.1568 24.7176 43.1568C38.127 43.1568 49.0512 32.3298 49.2201 18.9611C49.2201 18.9563 49.2214 18.9526 49.2214 18.9503C49.2214 18.9503 49.2201 18.9453 49.2201 18.9418Z" fill="#FB5D2E"/>
<path fill-rule="evenodd" clip-rule="evenodd" d="M24.7124 0.0389862C14.4327 0.0389862 6.10156 8.37058 6.10156 18.6477H43.319C43.319 8.37058 34.9883 0.0389862 24.7124 0.0389862Z" fill="#16B4F2"/>
<path fill-rule="evenodd" clip-rule="evenodd" d="M43.319 18.6476C43.319 28.9271 34.9883 37.2563 24.7122 37.2563C14.4324 37.2563 6.10156 28.9271 6.10156 18.6476H43.319Z" fill="#2C2C96"/>
</g>
<defs>
<clipPath id="clip0_1_1749">
<rect width="50" height="43.5484" fill="white"/>
</clipPath>
</defs>
</svg>

<svg xmlns="http://www.w3.org/2000/svg" width="72.727" height="64" fill="none" viewBox="0 0 50 44"><g fill-rule="evenodd" clip-path="url(#a)" clip-rule="evenodd"><path fill="#FB5D2E" d="M49.22 18.942a.3.3 0 0 0-.3-.294h-5.587c0 10.282-8.334 18.615-18.615 18.615-10.286 0-18.62-8.332-18.62-18.615H.506a.3.3 0 0 0-.301.293l-.003.01c0 .003.003.005.003.01.168 13.371 11.098 24.196 24.512 24.196 13.409 0 24.333-10.827 24.502-24.196l.001-.01v-.01Z"/><path fill="#16B4F2" d="M24.712.039c-10.28 0-18.61 8.332-18.61 18.609h37.217C43.319 8.37 34.989.039 24.712.039Z"/><path fill="#2C2C96" d="M43.319 18.648c0 10.28-8.33 18.608-18.607 18.608-10.28 0-18.61-8.329-18.61-18.608h37.217Z"/></g><defs><clipPath id="a"><path fill="#fff" d="M0 0h50v43.548H0z"/></clipPath></defs></svg>
